X:40
T: Schlof Kennchen,schlof, S. 9
N: L0001
O: Luxemburg
S: Die luxemburger Volkslieder lterer Zeit, Luxemburg 1904 posth.]
R: Kinderlied/Schlaflied]
M: 2/4
L: 1/8
K: Bb
 | d2cc2 | B2zF | ddcc | B2z
F | ddcc | BBf2
ddcc | BBf2 | d2cc | B2z2

